X: 6
T: Bobby Casey's
C: Michael Dwyer
Z: Andrea Abler
S: https://thesession.org/tunes/270#setting53035
R: reel
M: 4/4
L: 1/8
K: Dmaj
|:"D"DFA "G"B3 AB|"D"d2fd "A"edBA|"D"DFA "G"B3 AB|"D"dfaf "A"edBA|
"D"DFA "G"B3 AB|"D"d2fd "A"e2 fg|"D"fgaf "G"g2 fe|"D"defd "A"edBA:|
|:"D"d2 fd "A"eA A2|"D"defg "A"afge|"D"d2fd "Em"eB B2|"G"gB B2"A"dBAB|
"D"d2 fd "G"efge|"D"fedf "A"edBd|"D"ABdf "G"bafb|"A"afeg "D"fd d2:|

